X:1
T:Lasso ch'io ardo
T:Lasso ch'io ardo
T:Jhan Gero
T:Source : Trium vocum cantiones---Nürnberg---J.Petreius---1541. Editor : André Vierendeels (09/04/16).
T:Notes : Original clefs : C3, C4, F4 Editorial accidentals above the staff Note values have been halved
T:©
T:©
T:©
T:©
C:Jhan Gero
Z:©
%%score [ 1 2 3 ]
L:1/8
Q:1/4=94
M:2/2
K:F
V:1 treble-8 nm="Tenor 1" snm="T 1"
V:2 treble-8 nm="Tenor 2" snm="T 2"
V:3 bass nm="Bass" snm="B"
V:1
 A4 A2 A2 | B4 A3 G | F8 | z2 f2 e2 d2 | g3 f e2 f2 | d4 c4 | z2 c2 d2 e2 | f3 e d2 c2 | %8
w: Las- so ch'io|ar- * *|do|et al- tri|non _ _ me'l|cre- de,|si cre- d'o-|gnum ee non so-|
 B2 A2 d3 c | B4 A4 | c8 | d2 e2 f2 d2 | e2 g3 fed | c2 f3 e e2- |"^#" ed d4 c2 | d4 z4 | %16
w: la co- le- *|* i,|che|so- pr'o- gn'al- tr'e|chi so- * * *|la vor- * *||rei,|
 f4 f2 f2 | e2 d2 c4- | c2 c2 d2 c2 | B4 A4 | e4 e2 e2 | e2 e2 f4 | e6 e2 | f2 e2 d4 | c4 z2 c2 | %25
w: el- la non|par ch'il cre-|* d'e si se'l|ve- de,|in- fi- ni-|ta bel- lez-|za, e|po- ca fe-|de, non|
 d2 e2 f2 e2 | c2 d2 e2 f2 | g2 a3 g f2- | f2 e2 f4- | f8- | f8- | f4 z4 | f4 f2 f2 | e2 e2 fedc | %34
w: ve- de- te vo'il|cor ne gli'oc- *|* * chi mie-|* * i,|_|||se non fus-|se mia stel- * * *|
 d4 c2 c2 | d2 c4 B2 | c8 | z2 A2 c3 d | e2 f2 g2 fe | d2 e2 f2 e2- | ed d4 c2 | d4 B4 | A8 |] %43
w: la, i pur|do- vre- *|i|al fon- te|di pie- ta _ _|tro- var mer- ce-|||de.|
V:2
 F4 E2 F2 | G4 F4 | z2 B2 A2 F2 | c2 A2 B3 A | G2 c3 B A2- | A2 G2 A4 | z2 A2 B2 c2 | A2 C2 D2 E2 | %8
w: Las- so ch'io|ar- do|et al- tri|non me'l cre- *||* * de,|si cre- d'o-|gnum se non so-|
 F2 C2 DE F2- | F2 E2 F4- | F4 A4 | A2 G2 A2 B2 | G6 c2- | cBAG F2 A2 | GFED E4 | D4 z4 | %16
w: la co- le- * *|* * i,|_ che|so- pr'o- gn'al- tr'e|chi so-|* * * * la vor-||rei,|
 A4 A2 A2 | G2 F2 E2 A2- | AG G3 F F2- | F2 E2 F4 | z2 G2 G2 G2 | G2 G2 A4 | G2 c3 BAG | F2 A4 G2 | %24
w: el- la non|par ch'il cre- d'e|_ _ _ si s'el|_ ve- de,|in- fi- ni-|ta bel- lez-|za'e po- * * *|ca fe- *|
 A2 c3 B A2 | G4 z2 G2 | A2 B2 c2 A2 | G2 c2 A2 B2 | G4 F4 | c4 c2 c2 | B2 B2 cBAG | A4 G4 | %32
w: |de, non|ve- de- te vo'il|cor gli'oc- chi mie-|* i,|se non fus-|se mia stel- * * *|* la,|
 z2 A2 A2 B2 | cBAG F4- | F2 G2 A3 G | F2 E2 D4 | C4 z2 C2 | F3 G A4- | A2 A2 G2 A2 | B2 G2 A3 G | %40
w: i pur do-||* * vre- *||i, al|fon- te di|_ pie- ta tro-|var mer- ce- *|
 F2 G2 E4 | D4 G4 |"^#" F8 |] %43
w: ||de.|
V:3
 D,4 C,2 D,2 | G,,4 D,4- | D,4 z2 F,2 | E,2 D,2 G,3 F, | E,D, C,4 D,2 | B,,4 A,,4- | A,,4 z2 C,2 | %7
w: Las- so ch'io|ar- do|_ et|al- tre non me'l|cre- * * *|* de,|_ si|
 D,2 E,2 F,3 E, | D,2 C,2 B,,2 A,,2 | G,,4 F,,4- | F,,4 F,4 | F,2 E,2 D,2 D,2 | C,6 C,2 | %13
w: cre- d'o- gnum se|non so- la co-|le- i,|_ che|so- pr'o- gn'al- tr'e|chi so-|
 F,3 E, D,2 C,2 | B,,4 A,,4 | z4 D,4 | D,6 F,2 | C,2 D,2 A,,4 | C,4 B,,2 A,,2 | G,,4 F,,4 | %20
w: la _ _ vor-|re- i,|el-|la non|par ch'il cre-|d'e si s'el|ve- de,|
 C,4 C,2 C,2 | C,2 C,2 F,4 | C,8 | D,2 A,,2 B,,4 | A,,8 | z2 C,2 D,2 E,2 | F,2 D,2 C,2 D,2 | %27
w: in- fi- ni-|ta bel- lez-|za'e|po- ca fe-|de,|non ve- de-|te vo'il cor gli'oc-|
 E,2 F,3 E, D,2 | C,4 F,,4- | F,,8 | z4 F,4 | F,2 F,2 E,2 E,2 | F,E,D,C, D,4 | C,2 C,2 D,C,B,,A,, | %34
w: chi mie- * *|* i,|_|se|non fus- se mia|stel- * * * la,|i pur, _ _ _ _|
 B,,3 A,, F,,2 A,,2 | B,,2 C,2 G,,4 | A,,8 | F,,4 z2 A,,2 | C,2 D,2 E,2 F,2 | G,3 F,/E,/ D,2 C,2 | %40
w: _ _ _ i|pur do- vre-||i al|fon- te di pie-|ta _ _ _ tro-|
 D,2 G,,2 A,,4 | B,,4 G,,4 | D,8 |] %43
w: var mer- ce-||de/|

